groups/nitrogen/acetamide.svg

<svg height="256" viewBox="0 0 256 256" width="256" xmlns="http://www.w3.org/2000/svg"><path d="m0 0h256v256h-256z" fill="#fff"/><g fill="none" stroke-width="2"><path d="m126.7 188.5.1-30.2" stroke="#000"/><path d="m117.1 137.6-29.5-17.1" stroke="#000"/><path d="m91 122.5.1-32.2" stroke="#000"/><path d="m84.2 122.4.1-32.1" stroke="#000"/><path d="m87.6 120.5-29.6 17" stroke="#000"/><path d="m136.4 137.7 29.6-17.1" stroke="#000"/><path d="m169.4 122.6.1-32.1" stroke="#000"/><path d="m162.6 122.6.1-32.1" stroke="#000"/><path d="m166 120.6 29.5 17.2" stroke="#000"/><path d="m89.1 121.4-1.5-.9-1.5.8" stroke="#000" stroke-miterlimit="10"/><path d="m164.6 121.5 1.4-.9 1.5.9" stroke="#000" stroke-miterlimit="10"/><path d="m149.327 188.52c.004-1.698-2.26-1.702-2.263-.005-.003 1.698-2.267 1.693-2.263-.004.003-1.698-2.26-1.702-2.264-.005-.003 1.697-2.266 1.693-2.263-.004.003-1.698-2.26-1.702-2.263-.005-.004 1.697-2.267 1.693-2.263-.005.003-1.697-2.26-1.701-2.264-.004-.003 1.697-2.266 1.693-2.263-.005.003-1.697-2.26-1.702-2.263-.004-.004 1.697-2.267 1.693-2.264-.005.004-1.697-2.26-1.702-2.263-.004-.003 1.697-2.267 1.693-2.263-.005.003-1.697-2.26-1.702-2.264-.004-.003 1.697-2.266 1.693-2.263-.005.004-1.697-2.26-1.702-2.263-.004-.003 1.697-2.267 1.693-2.263-.005.003-1.697-2.26-1.702-2.264-.004-.003 1.697-2.266 1.693-2.263-.005.003-1.697-2.26-1.702-2.263-.004-.004 1.697-2.267 1.693-2.264-.005" stroke="#7f7f7f"/></g><text font-family="sans-serif" font-size="27" x="118.6" y="156.8">N</text><text font-family="sans-serif" font-size="27" x="79.6" y="88.8">O</text><text font-family="sans-serif" font-size="27" x="12.8" y="156.6">H</text><text font-family="sans-serif" font-size="17" x="31.5" y="167.5">3</text><text font-family="sans-serif" font-size="27" x="40.2" y="156.6">C</text><text font-family="sans-serif" font-size="27" x="158" y="89">O</text><text font-family="sans-serif" font-size="27" x="197" y="156.9">C</text><text font-family="sans-serif" font-size="27" x="215.8" y="156.9">H</text><text font-family="sans-serif" font-size="17" x="234.5" y="167.8">3</text></svg>

<?xml version='1.0' encoding='iso-8859-1'?>
<svg version='1.1' baseProfile='full'
              xmlns='http://www.w3.org/2000/svg'
                      xmlns:rdkit='http://www.rdkit.org/xml'
                      xmlns:xlink='http://www.w3.org/1999/xlink'
                  xml:space='preserve'
width='256px' height='256px' viewBox='0 0 256 256'>
<!-- END OF HEADER -->
<rect style='opacity:1.0;fill:#FFFFFF;stroke:none' width='256.0' height='256.0' x='0.0' y='0.0'> </rect>
<path class='bond-0 atom-0 atom-1' d='M 126.7,188.5 L 126.8,158.3' style='fill:none;fill-rule:evenodd;stroke:#000000;stroke-width:2.0px;stroke-linecap:butt;stroke-linejoin:miter;stroke-opacity:1' />
<path class='bond-1 atom-1 atom-2' d='M 117.1,137.6 L 87.6,120.5' style='fill:none;fill-rule:evenodd;stroke:#000000;stroke-width:2.0px;stroke-linecap:butt;stroke-linejoin:miter;stroke-opacity:1' />
<path class='bond-2 atom-2 atom-3' d='M 91.0,122.5 L 91.1,90.3' style='fill:none;fill-rule:evenodd;stroke:#000000;stroke-width:2.0px;stroke-linecap:butt;stroke-linejoin:miter;stroke-opacity:1' />
<path class='bond-2 atom-2 atom-3' d='M 84.2,122.4 L 84.3,90.3' style='fill:none;fill-rule:evenodd;stroke:#000000;stroke-width:2.0px;stroke-linecap:butt;stroke-linejoin:miter;stroke-opacity:1' />
<path class='bond-3 atom-2 atom-4' d='M 87.6,120.5 L 58.0,137.5' style='fill:none;fill-rule:evenodd;stroke:#000000;stroke-width:2.0px;stroke-linecap:butt;stroke-linejoin:miter;stroke-opacity:1' />
<path class='bond-4 atom-1 atom-5' d='M 136.4,137.7 L 166.0,120.6' style='fill:none;fill-rule:evenodd;stroke:#000000;stroke-width:2.0px;stroke-linecap:butt;stroke-linejoin:miter;stroke-opacity:1' />
<path class='bond-5 atom-5 atom-6' d='M 169.4,122.6 L 169.5,90.5' style='fill:none;fill-rule:evenodd;stroke:#000000;stroke-width:2.0px;stroke-linecap:butt;stroke-linejoin:miter;stroke-opacity:1' />
<path class='bond-5 atom-5 atom-6' d='M 162.6,122.6 L 162.7,90.5' style='fill:none;fill-rule:evenodd;stroke:#000000;stroke-width:2.0px;stroke-linecap:butt;stroke-linejoin:miter;stroke-opacity:1' />
<path class='bond-6 atom-5 atom-7' d='M 166.0,120.6 L 195.5,137.8' style='fill:none;fill-rule:evenodd;stroke:#000000;stroke-width:2.0px;stroke-linecap:butt;stroke-linejoin:miter;stroke-opacity:1' />
<path d='M 89.1,121.4 L 87.6,120.5 L 86.1,121.3' style='fill:none;stroke:#000000;stroke-width:2.0px;stroke-linecap:butt;stroke-linejoin:miter;stroke-miterlimit:10;stroke-opacity:1;' />
<path d='M 164.6,121.5 L 166.0,120.6 L 167.5,121.5' style='fill:none;stroke:#000000;stroke-width:2.0px;stroke-linecap:butt;stroke-linejoin:miter;stroke-miterlimit:10;stroke-opacity:1;' />
<path class='atom-1' d='M149.327,188.52 C149.331,186.822 147.067,186.818 147.064,188.515 C147.061,190.213 144.797,190.208 144.801,188.511 C144.804,186.813 142.541,186.809 142.537,188.506 C142.534,190.203 140.271,190.199 140.274,188.502 C140.277,186.804 138.014,186.8 138.011,188.497 C138.007,190.194 135.744,190.19 135.748,188.492 C135.751,186.795 133.488,186.791 133.484,188.488 C133.481,190.185 131.218,190.181 131.221,188.483 C131.224,186.786 128.961,186.781 128.958,188.479 C128.954,190.176 126.691,190.172 126.694,188.474 C126.698,186.777 124.434,186.772 124.431,188.47 C124.428,190.167 122.164,190.163 122.168,188.465 C122.171,186.768 119.908,186.763 119.904,188.461 C119.901,190.158 117.638,190.154 117.641,188.456 C117.645,186.759 115.381,186.754 115.378,188.452 C115.375,190.149 113.111,190.145 113.115,188.447 C113.118,186.75 110.855,186.745 110.851,188.443 C110.848,190.14 108.585,190.136 108.588,188.438 C108.591,186.741 106.328,186.736 106.325,188.434 C106.321,190.131 104.058,190.127 104.061,188.429' style='fill:none;stroke:#7F7F7F;stroke-width:2.0px;stroke-linecap:butt;stroke-linejoin:miter;stroke-opacity:1' />
<text x='118.6' y='156.8' class='atom-1' style='font-size:27px;font-style:normal;font-weight:normal;fill-opacity:1;stroke:none;font-family:sans-serif;text-anchor:start;fill:#000000' >N</text>
<text x='79.6' y='88.8' class='atom-3' style='font-size:27px;font-style:normal;font-weight:normal;fill-opacity:1;stroke:none;font-family:sans-serif;text-anchor:start;fill:#000000' >O</text>
<text x='12.8' y='156.6' class='atom-4' style='font-size:27px;font-style:normal;font-weight:normal;fill-opacity:1;stroke:none;font-family:sans-serif;text-anchor:start;fill:#000000' >H</text>
<text x='31.5' y='167.5' class='atom-4' style='font-size:17px;font-style:normal;font-weight:normal;fill-opacity:1;stroke:none;font-family:sans-serif;text-anchor:start;fill:#000000' >3</text>
<text x='40.2' y='156.6' class='atom-4' style='font-size:27px;font-style:normal;font-weight:normal;fill-opacity:1;stroke:none;font-family:sans-serif;text-anchor:start;fill:#000000' >C</text>
<text x='158.0' y='89.0' class='atom-6' style='font-size:27px;font-style:normal;font-weight:normal;fill-opacity:1;stroke:none;font-family:sans-serif;text-anchor:start;fill:#000000' >O</text>
<text x='197.0' y='156.9' class='atom-7' style='font-size:27px;font-style:normal;font-weight:normal;fill-opacity:1;stroke:none;font-family:sans-serif;text-anchor:start;fill:#000000' >C</text>
<text x='215.8' y='156.9' class='atom-7' style='font-size:27px;font-style:normal;font-weight:normal;fill-opacity:1;stroke:none;font-family:sans-serif;text-anchor:start;fill:#000000' >H</text>
<text x='234.5' y='167.8' class='atom-7' style='font-size:17px;font-style:normal;font-weight:normal;fill-opacity:1;stroke:none;font-family:sans-serif;text-anchor:start;fill:#000000' >3</text>
</svg>
